X: 1
T: Kansas City
R: hornpipe
M: 4/4
L: 1/8
K: Dmaj
BA|:F2FF FEFA|FED2 D2FA|ABBB AFFA|FED2 E2AD|
F2FF FEFA|FED2 D2FA|defa bfaf|1gfd2 d2BA:|2gfd2 d2dA||
|:def2 a2fa|abb2 affa|eff2 affa|fed2 e2ag|
efaf gefd|edB2 BAAF|ABde faba|1fed2 d2dA:|2fed2 d2BA||


Tune 8755	Setting 29961

